X: 36998
T: Sidney The Sausage Dog
R: reel
M: 4/4
K: Fmajor
f3c Acfg|aff/f/f fgaf|gee/e/e cege|fagf ecde|
f3c Acfg|aff/f/f fgaf|gee/e/e cege|1 fage f2 ce:|2 fage f2 fe||
|:d3B DFBd|c ~A3 cAFA|BcBG ECDE|FEFG Acfe|
d3B DFBd|c ~A3 cAFA|BABc dcde|1 fage f2 fe:|2 fage f2 ce||

